X: 15171
T: the Colliers Daughter
%R: march, reel
B: James Oswald "The Caledonian Pocket Companion" v.1 b.5 p.17 #1
S: https://ia800501.us.archive.org/18/items/caledonianpocket01rugg/caledonianpocket01rugg_bw.pdf
Z: 2020 John Chambers <jc:trillian.mit.edu>
M: C|
L: 1/8
K: Gmix
%%slurgraces 1
%%graceslurs 1
"_Brisk"d2 |\
TB3A G2G2 | G4 D3E | F3f (cA) (GF) | A2 c4 (dc) |\
B3A G2G2 | G4 D4 | B2(AB) (cB)(AG) | B2 d4 e^f |
(g^f)(ed) (ed)(cB) | c2A2 =f3g | (fg)a2 F3G | A2 c4 (dc) |\
TB2(AG) A2D2 | TB2(AG) A2D2 | g^fed g2G2 | B2d2 d2 :|
|: (e^f) |\
g3a (ga)(ba) | g4 d3e | =f3g (fg)(ag) | f2 a4 (ga) |\
{ga}b2ag (ga)(ba) | g4 d2(e^f) | g^fed g2G2 | B2 d4 (ef) |
(ge)(fd) (ec)(dB) | c2A2 f3g | afga F3G | A2 c4 (dc) |\
TB2(BG) A2D2 | (cB)(AG) A2D2 | g^fga g2G2 | B2 d4 :|
